X:1
T:The Conflict of the Ages
T:Lelia Naylor Morris, 1912
T:The Conflict of the Ages
T:Public Domain
T:Public Domain
T:Public Domain
C:Lelia Naylor Morris, 1912
Z:Public Domain
%%score ( 1 2 ) ( 3 4 )
L:1/8
M:3/4
K:Db
V:1 treble 
V:2 treble 
V:3 bass 
V:4 bass 
V:1
 [DF]>[EG] | [DFA]2 [DFA]2 [DF]>[EG] | [DFA]2 [DFA]2 [DF]>[FA] | d2 c2 B2 | [DF]4 [FA]>[Fd] | %5
w: 1.~Lo, the|con- flict of the|ag- es is up-|on us to-|And the ar-|
w: 2.~Catch the|vi- sion of a|lost world go- ing|down- ward in|While the Mas-|
w: 3.~See the|Church of God a-|wak- ing and with|glo- ri- ous|She is lay-|
 [EGc]2 [EGc]2 [GB]>[Gc] | [DFB]2 [DFB]2 [DF]>[DF] | E2 D2 E2 | [=A,CF]4 [G=A]>[GA] | %9
w: mies are as- sem-|bling all in bat-|tle ar- ray;|you num- bered|
w: ter’s great com- mis-|sion long un- heed-|ed has been;|the child- ren|
w: ing on her al-|tars now her no-|blest and blest;|the fi- nal|
 [FAd]2 [FAd]2 [Ac]>[GB] | [FA]2 [FA]2 [FA]>[FA] | [E=A]2 [EA]2 [EA]2 | [DB]4 [DB]>[DB] | %13
w: with the faith- ful,|one of God’s loy-|al few, Who|have sworn Him|
w: of the king- dom|joined in heart and|in hand, Press-|ing for- ward|
w: con- sum- ma- tion|we are hast- en-|ing on, And|the time for|
 [Fd]2 [F=Ac]2 [DFB]>[DFB] | [CEA]2 [CE]2 [Ec]>[Ec] | [=Ge]2 [Gd]2 (ED) | [CA]4 ||"^Refrain" A>A | %18
w: full al- le- giance?|can He count up-|on you? * *|||
w: in the strug- gle|to re- deem this|fair land. Have *|eyes|caught the|
w: loy- al ser- vice|will for- ev- er|be done. * *|||
 [df]4 [cf]>[Bf] | [Af]2 [Fd]2 A>A | [df]4 [cf]>[Bf] | [cg]4 A>A | [cg]4 [Bg]>[Ag] | %23
w: |||||
w: Have your hearts|felt the thrill? To|of the Mas-|ter do you|“I will”? For|
w: |||||
 [cg]2 [cg]2 [Bg]>[Ag] | [Bf]2 [Af]3 [=G=e] | [Af]4 [GA]>[GA] | [FA]2 [Fd]2 [Ad][Ac] | %27
w: ||||
w: the con- flict of|the ag- es,|told by pro-|phets and by sag-|
w: ||||
 [GB]2 [GB]2 [AB]>[AB] | [=GB]2 [Ge]2 [Ge][Gd] | [Ac]2 [Ac]2 [GA]>[GA] | [Af]2 [Fd]2 [GA]>[GA] | %31
w: ||||
w: es, In its fu-|ry is up- on|us, is up- on|us to- day. *|
w: ||||
 [Af]2 [Fd]2 [Ac]>[Ad] | [Ge]2 [Fd]2 [Ec]2 | [Fd]4 |] %34
w: |||
w: |||
w: |||
V:2
 x2 | x6 | x6 | F6 | x6 | x6 | x6 | B,6 | x6 | x6 | x6 | x6 | x6 | x6 | x6 | x4 B2 | x4 || A>A | %18
w: |||day,||||Are|||||||||||
w: |||sin,||||See||||||||your||vi- sion?|
w: |||zest||||T’ward|||||||||||
 x6 | x4 A>A | x6 | x4 A>A | x6 | x6 | x6 | x6 | x6 | x6 | x6 | x6 | x6 | x6 | x6 | x4 |] %34
w: ||||||||||||||||
w: |the call||an- swer,|||||||||||||
w: ||||||||||||||||
V:3
 z2 | D,2 A,,2 z2 | D,2 A,,2 z2 | D,2 A,,2 z2 | (D,2 B,,2) z2 | E,2 A,,2 z2 | D,2 A,,2 z2 | %7
 [G,,G,]4 [G,,G,]2 | [F,,F,]4 E,>E, | D,2 A,,2 z2 | D,2 A,,2 z2 | (F,C,) (=A,F,) (E,D,) | %12
 (B,,2 [F,B,]2) [F,B,]2 | B,,2 C,2 D,2 | E,4 [E,A,]2 | (E,B,) (=G,B,) [E,G,]2 | [A,,E,]4 || z2 | %18
 (D,[F,A,] [F,A,][F,A,]) (A,,A,) | (D,[F,A,]) ([F,A,][F,A,]) (D,[F,A,]) | %20
 (D,[F,A,] [F,A,][F,A,]) (D,[F,A,]) | ([E,G,]A, [G,A,][G,A,]) (E,[G,A,]) | (A,,A, E,A,) (C,A,) | %23
 (A,,A,) (A,A,) (A,,A,) | (D,[F,A,]) ([F,A,][F,A,]) [D,F,A,]2 | %25
 (D,[F,A,] [F,A,][F,A,]) [A,C]>[A,C] | [D,D]2 [D,A,]2 [F,A,][F,D] | [G,D]2 [G,D]2 [F,=D]>[F,D] | %28
 [E,E]2 [E,B,]2 [E,B,][E,E] | [A,E]2 [A,E]2 [A,C]>[A,C] | [D,D]2 [D,A,]2 [A,C]>[A,C] | %31
 [D,D]2 [D,A,]2 [E,A,]>[F,A,] | [G,B,]2 A,2 A,2 | [D,A,]4 |] %34
V:4
 x2 | x6 | x6 | x6 | x6 | x6 | x6 | x6 | x6 | x6 | x6 | x6 | x6 | x6 | x6 | x6 | x4 || x2 | x6 | %19
 x6 | x6 | x6 | x6 | x6 | x6 | x6 | x6 | x6 | x6 | x6 | x6 | x6 | x2 A,2 A,2 | x4 |] %34

